usr/share/icons/biglinux-icons-material/scalable/apps/bluetooth-inactive.svg

<svg xmlns="http://www.w3.org/2000/svg" xml:space="preserve" width="24" height="24" version="1"><defs><radialGradient id="a" cx="0" cy="0" r="1" fx="0" fy="0" gradientTransform="matrix(0 16.5 -16.5 0 9 .75)" gradientUnits="userSpaceOnUse" spreadMethod="pad"><stop offset="0" style="stop-opacity:1;stop-color:#a4a4a4"/><stop offset="1" style="stop-opacity:1;stop-color:#626262"/></radialGradient></defs><g style="fill:none"><path d="M7.195.836c.09 0 .176-.012.258-.035a23.86 23.86 0 0 1 3.231.008 10.26 10.26 0 0 1 2.836.636c1.519.625 2.558 1.711 3.121 3.254.316.93.507 1.887.566 2.867a21.227 21.227 0 0 1-.086 3.696 8.976 8.976 0 0 1-.672 2.488c-.637 1.383-1.672 2.336-3.101 2.859a11.693 11.693 0 0 1-3.575.618 15.998 15.998 0 0 1-4.089-.309c-2.481-.551-4.016-2.066-4.594-4.543a14.244 14.244 0 0 1-.336-3.383c-.027-1.215.101-2.41.387-3.59.609-2.312 2.078-3.746 4.406-4.3A10.27 10.27 0 0 1 7.195.836Z" style="fill:url(#a);fill-rule:evenodd;stroke:none" transform="matrix(1.33333 0 0 1.33333 0 0)"/></g><path fill="none" stroke="#fff" stroke-linecap="square" stroke-width=".688" d="m8.562 8.906 6.188 6.188-3.094 2.922V5.984l3.094 2.922-6.188 5.5"/></svg>

<?xml version="1.0" encoding="UTF-8" standalone="no"?>
<svg
   width="24"
   height="24"
   version="1"
   id="svg34867"
   sodipodi:docname="preferences-system-bluetooth-inactive.svg"
   inkscape:version="1.2.2 (b0a8486541, 2022-12-01)"
   xml:space="preserve"
   xmlns:inkscape="http://www.inkscape.org/namespaces/inkscape"
   xmlns:sodipodi="http://sodipodi.sourceforge.net/DTD/sodipodi-0.dtd"
   xmlns="http://www.w3.org/2000/svg"
   xmlns:svg="http://www.w3.org/2000/svg"><defs
     id="defs34871"><radialGradient
       id="paint0_radial_29_149"
       cx="0"
       cy="0"
       r="1"
       gradientUnits="userSpaceOnUse"
       gradientTransform="matrix(0,150,-150,0,-278.33746,-123.84153)"><stop
         stop-color="#80D2FF"
         id="stop17930" /><stop
         offset="1"
         stop-color="#2991C9"
         id="stop17932"
         style="stop-color:#002a43;stop-opacity:1;" /></radialGradient><radialGradient
       id="paint0_radial_1_27"
       cx="0"
       cy="0"
       r="1"
       gradientUnits="userSpaceOnUse"
       gradientTransform="matrix(0,22.000003,-22.000003,0,2.8832922,-3.5034343)"><stop
         stop-color="#9BDF6C"
         id="stop5989"
         offset="0"
         style="stop-color:#a4a4a4;stop-opacity:1;" /><stop
         offset="1"
         stop-color="#204705"
         id="stop5991"
         style="stop-color:#626262;stop-opacity:1;" /></radialGradient><radialGradient
       id="paint0_radial_1_284"
       cx="0"
       cy="0"
       r="1"
       gradientUnits="userSpaceOnUse"
       gradientTransform="matrix(-10.999959,21.999967,-21.999967,-10.999959,-24.402365,-4.1651738)"><stop
         stop-color="#9A9A9A"
         id="stop8367" /><stop
         offset="1"
         stop-color="#5D5D5D"
         id="stop8369" /></radialGradient><radialGradient
       fx="0"
       fy="0"
       cx="0"
       cy="0"
       r="1"
       gradientUnits="userSpaceOnUse"
       gradientTransform="matrix(0,16.500002,-16.500002,0,8.999998,0.749999)"
       spreadMethod="pad"
       id="radialGradient12763"><stop
         style="stop-opacity:1;stop-color:#a4a4a4"
         offset="0"
         id="stop12759" /><stop
         style="stop-opacity:1;stop-color:#626262"
         offset="1"
         id="stop12761" /></radialGradient><clipPath
       clipPathUnits="userSpaceOnUse"
       id="clipPath12773"><path
         d="M 0,0 H 19 V 19 H 0 Z"
         id="path12771" /></clipPath><clipPath
       clipPathUnits="userSpaceOnUse"
       id="clipPath12789"><path
         d="M 0,0 H 19 V 19 H 0 Z"
         id="path12787" /></clipPath><radialGradient
       fx="0"
       fy="0"
       cx="0"
       cy="0"
       r="1"
       gradientUnits="userSpaceOnUse"
       gradientTransform="matrix(0,16.500002,-16.500002,0,8.999998,0.749999)"
       spreadMethod="pad"
       id="radialGradient12763-3"><stop
         style="stop-opacity:1;stop-color:#a4a4a4"
         offset="0"
         id="stop12759-6" /><stop
         style="stop-opacity:1;stop-color:#626262"
         offset="1"
         id="stop12761-7" /></radialGradient></defs><sodipodi:namedview
     id="namedview34869"
     pagecolor="#ffffff"
     bordercolor="#000000"
     borderopacity="0.25"
     inkscape:showpageshadow="2"
     inkscape:pageopacity="0.0"
     inkscape:pagecheckerboard="0"
     inkscape:deskcolor="#d1d1d1"
     showgrid="false"
     inkscape:zoom="19.312854"
     inkscape:cx="2.2264964"
     inkscape:cy="13.902658"
     inkscape:window-width="2560"
     inkscape:window-height="1000"
     inkscape:window-x="1680"
     inkscape:window-y="0"
     inkscape:window-maximized="1"
     inkscape:current-layer="svg34867" /><g
     id="g12749-5"
     transform="matrix(1.3333333,0,0,1.3333333,-4.5225532e-4,-3.504174e-5)"
     style="fill:none"><g
       id="g12751-3"><g
         id="g12757-5"><path
           d="m 7.195,0.836 c 0.09,0 0.176,-0.012 0.258,-0.035 1.078,-0.071 2.156,-0.067 3.231,0.008 0.976,0.078 1.921,0.289 2.836,0.636 1.519,0.625 2.558,1.711 3.121,3.254 0.316,0.93 0.507,1.887 0.566,2.867 0.078,1.235 0.051,2.465 -0.086,3.696 -0.105,0.863 -0.328,1.691 -0.672,2.488 -0.637,1.383 -1.672,2.336 -3.101,2.859 C 12.191,17 11,17.207 9.773,17.227 8.398,17.301 7.035,17.195 5.684,16.918 3.203,16.367 1.668,14.852 1.09,12.375 0.844,11.262 0.73,10.133 0.754,8.992 0.727,7.777 0.855,6.582 1.141,5.402 1.75,3.09 3.219,1.656 5.547,1.102 6.09,0.969 6.641,0.879 7.195,0.836 Z"
           style="fill:url(#radialGradient12763-3);fill-rule:evenodd;stroke:none"
           id="path12765-6" /></g></g></g><path
     d="M 8.5624993,8.9062494 14.75,15.093751 11.65625,18.015626 V 5.9843739 L 14.75,8.9062494 8.5624993,14.40625"
     fill="none"
     stroke="#ffffff"
     stroke-linecap="square"
     stroke-width="0.6875"
     id="path34865" /></svg>
